dist/images/schedule.svg

<?xml version="1.0" encoding="UTF-8"?>
<svg width="14px" height="16px" viewBox="0 0 14 16" version="1.1" xmlns="http://www.w3.org/2000/svg" xmlns:xlink="http://www.w3.org/1999/xlink">
    <!-- Generator: Sketch 62 (91390) - https://sketch.com -->
    <title>schedule</title>
    <desc>Created with Sketch.</desc>
    <g id="Design-V1" stroke="none" stroke-width="1" fill="none" fill-rule="evenodd">
        <g id="Process-&amp;-Stories" transform="translate(-1092.000000, -15.000000)" fill="#4DCA98" fill-rule="nonzero">
            <path d="M1104.09372,30.8749955 C1104.48435,30.8749955 1104.81638,30.738277 1105.08981,30.4648403 C1105.36325,30.1914036 1105.49997,29.8593728 1105.49997,29.4687489 L1105.49997,19.1562735 C1105.49997,18.7656495 1105.36325,18.4336188 1105.08981,18.1601821 C1104.81638,17.8867454 1104.48435,17.7500268 1104.09372,17.7500268 L1102.68748,17.7500268 L1102.68748,16.226593 C1102.68748,16.1289371 1102.6533,16.0459292 1102.58494,15.9775701 C1102.51658,15.909211 1102.43357,15.8750313 1102.33591,15.8750313 L1101.16404,15.8750313 C1101.06639,15.8750313 1100.98338,15.909211 1100.91502,15.9775701 C1100.84666,16.0459292 1100.81248,16.1289371 1100.81248,16.226593 L1100.81248,17.7500268 L1097.06249,17.7500268 L1097.06249,16.226593 C1097.06249,16.1289371 1097.02831,16.0459292 1096.95995,15.9775701 C1096.89159,15.909211 1096.80858,15.8750313 1096.71093,15.8750313 L1095.53905,15.8750313 C1095.4414,15.8750313 1095.35839,15.909211 1095.29003,15.9775701 C1095.22167,16.0459292 1095.18749,16.1289371 1095.18749,16.226593 L1095.18749,17.7500268 L1093.78125,17.7500268 C1093.39062,17.7500268 1093.05859,17.8867454 1092.78516,18.1601821 C1092.51172,18.4336188 1092.375,18.7656495 1092.375,19.1562735 L1092.375,29.4687489 C1092.375,29.8593728 1092.51172,30.1914036 1092.78516,30.4648403 C1093.05859,30.738277 1093.39062,30.8749955 1093.78125,30.8749955 L1104.09372,30.8749955 Z M1103.91794,29.4687489 L1093.95703,29.4687489 C1093.91797,29.4687489 1093.8789,29.4492175 1093.83984,29.4101553 C1093.80078,29.371093 1093.78125,29.3320303 1093.78125,29.2929681 L1093.78125,20.5625201 L1104.09372,20.5625201 L1104.09372,29.2929681 C1104.09372,29.3320303 1104.07419,29.371093 1104.03513,29.4101553 C1103.99607,29.4492175 1103.957,29.4687489 1103.91794,29.4687489 Z M1096.71093,24.3125112 C1096.80858,24.3125112 1096.89159,24.2783314 1096.95995,24.2099724 C1097.02831,24.1416133 1097.06249,24.0586054 1097.06249,23.9609495 L1097.06249,22.7890773 C1097.06249,22.6914214 1097.02831,22.6084135 1096.95995,22.5400545 C1096.89159,22.4716954 1096.80858,22.4375156 1096.71093,22.4375156 L1095.53905,22.4375156 C1095.4414,22.4375156 1095.35839,22.4716954 1095.29003,22.5400545 C1095.22167,22.6084135 1095.18749,22.6914214 1095.18749,22.7890773 L1095.18749,23.9609495 C1095.18749,24.0586054 1095.22167,24.1416133 1095.29003,24.2099724 C1095.35839,24.2783314 1095.4414,24.3125112 1095.53905,24.3125112 L1096.71093,24.3125112 Z M1099.52342,24.3125112 C1099.62108,24.3125112 1099.70408,24.2783314 1099.77244,24.2099724 C1099.8408,24.1416133 1099.87498,24.0586054 1099.87498,23.9609495 L1099.87498,22.7890773 C1099.87498,22.6914214 1099.8408,22.6084135 1099.77244,22.5400545 C1099.70408,22.4716954 1099.62108,22.4375156 1099.52342,22.4375156 L1098.35155,22.4375156 C1098.25389,22.4375156 1098.17088,22.4716954 1098.10253,22.5400545 C1098.03417,22.6084135 1097.99999,22.6914214 1097.99999,22.7890773 L1097.99999,23.9609495 C1097.99999,24.0586054 1098.03417,24.1416133 1098.10253,24.2099724 C1098.17088,24.2783314 1098.25389,24.3125112 1098.35155,24.3125112 L1099.52342,24.3125112 Z M1102.33591,24.3125112 C1102.43357,24.3125112 1102.51658,24.2783314 1102.58494,24.2099724 C1102.6533,24.1416133 1102.68748,24.0586054 1102.68748,23.9609495 L1102.68748,22.7890773 C1102.68748,22.6914214 1102.6533,22.6084135 1102.58494,22.5400545 C1102.51658,22.4716954 1102.43357,22.4375156 1102.33591,22.4375156 L1101.16404,22.4375156 C1101.06639,22.4375156 1100.98338,22.4716954 1100.91502,22.5400545 C1100.84666,22.6084135 1100.81248,22.6914214 1100.81248,22.7890773 L1100.81248,23.9609495 C1100.81248,24.0586054 1100.84666,24.1416133 1100.91502,24.2099724 C1100.98338,24.2783314 1101.06639,24.3125112 1101.16404,24.3125112 L1102.33591,24.3125112 Z M1099.52342,27.1250045 C1099.62108,27.1250045 1099.70408,27.0908247 1099.77244,27.0224657 C1099.8408,26.9541066 1099.87498,26.8710987 1099.87498,26.7734428 L1099.87498,25.6015706 C1099.87498,25.5039147 1099.8408,25.4209068 1099.77244,25.3525478 C1099.70408,25.2841887 1099.62108,25.2500089 1099.52342,25.2500089 L1098.35155,25.2500089 C1098.25389,25.2500089 1098.17088,25.2841887 1098.10253,25.3525478 C1098.03417,25.4209068 1097.99999,25.5039147 1097.99999,25.6015706 L1097.99999,26.7734428 C1097.99999,26.8710987 1098.03417,26.9541066 1098.10253,27.0224657 C1098.17088,27.0908247 1098.25389,27.1250045 1098.35155,27.1250045 L1099.52342,27.1250045 Z M1096.71093,27.1250045 C1096.80858,27.1250045 1096.89159,27.0908247 1096.95995,27.0224657 C1097.02831,26.9541066 1097.06249,26.8710987 1097.06249,26.7734428 L1097.06249,25.6015706 C1097.06249,25.5039147 1097.02831,25.4209068 1096.95995,25.3525478 C1096.89159,25.2841887 1096.80858,25.2500089 1096.71093,25.2500089 L1095.53905,25.2500089 C1095.4414,25.2500089 1095.35839,25.2841887 1095.29003,25.3525478 C1095.22167,25.4209068 1095.18749,25.5039147 1095.18749,25.6015706 L1095.18749,26.7734428 C1095.18749,26.8710987 1095.22167,26.9541066 1095.29003,27.0224657 C1095.35839,27.0908247 1095.4414,27.1250045 1095.53905,27.1250045 L1096.71093,27.1250045 Z M1102.33591,27.1250045 C1102.43357,27.1250045 1102.51658,27.0908247 1102.58494,27.0224657 C1102.6533,26.9541066 1102.68748,26.8710987 1102.68748,26.7734428 L1102.68748,25.6015706 C1102.68748,25.5039147 1102.6533,25.4209068 1102.58494,25.3525478 C1102.51658,25.2841887 1102.43357,25.2500089 1102.33591,25.2500089 L1101.16404,25.2500089 C1101.06639,25.2500089 1100.98338,25.2841887 1100.91502,25.3525478 C1100.84666,25.4209068 1100.81248,25.5039147 1100.81248,25.6015706 L1100.81248,26.7734428 C1100.81248,26.8710987 1100.84666,26.9541066 1100.91502,27.0224657 C1100.98338,27.0908247 1101.06639,27.1250045 1101.16404,27.1250045 L1102.33591,27.1250045 Z" id="schedule"></path>
        </g>
    </g>
</svg>

<svg width="14" height="16" viewBox="0 0 14 16" version="1.1" xmlns="http://www.w3.org/2000/svg"><g id="Design-V1" stroke="none" stroke-width="1" fill="none" fill-rule="evenodd"><g id="Process-&amp;-Stories" transform="translate(-1092 -15)" fill="#4DCA98" fill-rule="nonzero"><path d="M1104.094 30.875c.39 0 .722-.137.996-.41a1.36 1.36 0 00.41-.996V19.156c0-.39-.137-.722-.41-.996a1.356 1.356 0 00-.996-.41h-1.407v-1.523a.339.339 0 00-.102-.25.339.339 0 00-.25-.102h-1.171a.339.339 0 00-.249.103.339.339 0 00-.103.249v1.523h-3.75v-1.523a.339.339 0 00-.102-.25.339.339 0 00-.25-.102h-1.17a.339.339 0 00-.25.103.339.339 0 00-.103.249v1.523h-1.406c-.39 0-.722.137-.996.41a1.36 1.36 0 00-.41.996V29.47c0 .39.137.722.41.996.274.273.606.41.996.41h10.313zm-.176-1.406h-9.961c-.039 0-.078-.02-.117-.059-.04-.039-.059-.078-.059-.117v-8.73h10.313v8.73c0 .039-.02.078-.059.117-.039.04-.078.059-.117.059zm-7.207-5.156c.098 0 .18-.035.249-.103a.339.339 0 00.102-.25v-1.17a.339.339 0 00-.102-.25.339.339 0 00-.25-.102h-1.17a.339.339 0 00-.25.102.339.339 0 00-.103.25v1.17a.34.34 0 00.103.25.339.339 0 00.25.103h1.17zm2.812 0a.344.344 0 00.25-.103.339.339 0 00.102-.25v-1.17a.339.339 0 00-.103-.25.339.339 0 00-.249-.102h-1.171a.339.339 0 00-.25.102.339.339 0 00-.102.25v1.17c0 .099.034.182.103.25a.339.339 0 00.249.103h1.171zm2.813 0c.098 0 .18-.035.249-.103a.339.339 0 00.102-.25v-1.17a.339.339 0 00-.102-.25.339.339 0 00-.25-.102h-1.171a.339.339 0 00-.249.102.339.339 0 00-.103.25v1.17a.34.34 0 00.103.25.339.339 0 00.249.103h1.172zm-2.813 2.812a.34.34 0 00.25-.103.339.339 0 00.102-.249v-1.171a.339.339 0 00-.103-.25.339.339 0 00-.249-.102h-1.171a.339.339 0 00-.25.103.339.339 0 00-.102.249v1.171a.34.34 0 00.103.25.339.339 0 00.249.102h1.171zm-2.812 0c.098 0 .18-.034.249-.103a.339.339 0 00.102-.249v-1.171a.339.339 0 00-.102-.25.339.339 0 00-.25-.102h-1.17a.339.339 0 00-.25.103.339.339 0 00-.103.249v1.171c0 .098.035.181.103.25a.339.339 0 00.25.102h1.17zm5.625 0c.098 0 .18-.034.249-.103a.339.339 0 00.102-.249v-1.171a.339.339 0 00-.102-.25.339.339 0 00-.25-.102h-1.171a.339.339 0 00-.249.103.339.339 0 00-.103.249v1.171c0 .098.035.181.103.25a.339.339 0 00.249.102h1.172z" id="schedule"/></g></g></svg>
